assets/kanban.svg

<svg xmlns="http://www.w3.org/2000/svg" fill="none" viewBox="0 0 28 30">
  <path stroke="#2A2238" stroke-width="1.5" d="M4.5 1c-.92826 0-1.8185.36875-2.47487 1.02513C1.36875 2.6815 1 3.57174 1 4.5v21c0 .9283.36875 1.8185 1.02513 2.4749C2.6815 28.6312 3.57174 29 4.5 29h19.25c.9283 0 1.8185-.3688 2.4749-1.0251.6563-.6564 1.0251-1.5466 1.0251-2.4749v-21c0-.92826-.3688-1.8185-1.0251-2.47487C25.5685 1.36875 24.6783 1 23.75 1H4.5Zm8.75 3.5H15c.4641 0 .9092.18437 1.2374.51256.3282.32819.5126.77331.5126 1.23744v5.25c0 .4641-.1844.9092-.5126 1.2374-.3282.3282-.7733.5126-1.2374.5126h-1.75c-.4641 0-.9092-.1844-1.2374-.5126-.3282-.3282-.5126-.7733-.5126-1.2374V6.25c0-.46413.1844-.90925.5126-1.23744.3282-.32819.7733-.51256 1.2374-.51256ZM4.5 6.25c0-.46413.18437-.90925.51256-1.23744C5.34075 4.68437 5.78587 4.5 6.25 4.5H8c.46413 0 .90925.18437 1.23744.51256.32818.32819.51256.77331.51256 1.23744V18.5c0 .4641-.18438.9092-.51256 1.2374-.32819.3282-.77331.5126-1.23744.5126H6.25c-.46413 0-.90925-.1844-1.23744-.5126C4.68437 19.4092 4.5 18.9641 4.5 18.5V6.25ZM20.25 4.5H22c.4641 0 .9092.18437 1.2374.51256.3282.32819.5126.77331.5126 1.23744v17.5c0 .4641-.1844.9092-.5126 1.2374-.3282.3282-.7733.5126-1.2374.5126h-1.75c-.4641 0-.9092-.1844-1.2374-.5126-.3282-.3282-.5126-.7733-.5126-1.2374V6.25c0-.46413.1844-.90925.5126-1.23744.3282-.32819.7733-.51256 1.2374-.51256Z"/>
</svg>

<svg width="28" height="30" viewBox="0 0 28 30" fill="none" xmlns="http://www.w3.org/2000/svg">
<path d="M4.5 1C3.57174 1 2.6815 1.36875 2.02513 2.02513C1.36875 2.6815 1 3.57174 1 4.5V25.5C1 26.4283 1.36875 27.3185 2.02513 27.9749C2.6815 28.6312 3.57174 29 4.5 29H23.75C24.6783 29 25.5685 28.6312 26.2249 27.9749C26.8812 27.3185 27.25 26.4283 27.25 25.5V4.5C27.25 3.57174 26.8812 2.6815 26.2249 2.02513C25.5685 1.36875 24.6783 1 23.75 1H4.5ZM13.25 4.5H15C15.4641 4.5 15.9092 4.68437 16.2374 5.01256C16.5656 5.34075 16.75 5.78587 16.75 6.25V11.5C16.75 11.9641 16.5656 12.4092 16.2374 12.7374C15.9092 13.0656 15.4641 13.25 15 13.25H13.25C12.7859 13.25 12.3408 13.0656 12.0126 12.7374C11.6844 12.4092 11.5 11.9641 11.5 11.5V6.25C11.5 5.78587 11.6844 5.34075 12.0126 5.01256C12.3408 4.68437 12.7859 4.5 13.25 4.5ZM4.5 6.25C4.5 5.78587 4.68437 5.34075 5.01256 5.01256C5.34075 4.68437 5.78587 4.5 6.25 4.5H8C8.46413 4.5 8.90925 4.68437 9.23744 5.01256C9.56562 5.34075 9.75 5.78587 9.75 6.25V18.5C9.75 18.9641 9.56562 19.4092 9.23744 19.7374C8.90925 20.0656 8.46413 20.25 8 20.25H6.25C5.78587 20.25 5.34075 20.0656 5.01256 19.7374C4.68437 19.4092 4.5 18.9641 4.5 18.5V6.25ZM20.25 4.5H22C22.4641 4.5 22.9092 4.68437 23.2374 5.01256C23.5656 5.34075 23.75 5.78587 23.75 6.25V23.75C23.75 24.2141 23.5656 24.6592 23.2374 24.9874C22.9092 25.3156 22.4641 25.5 22 25.5H20.25C19.7859 25.5 19.3408 25.3156 19.0126 24.9874C18.6844 24.6592 18.5 24.2141 18.5 23.75V6.25C18.5 5.78587 18.6844 5.34075 19.0126 5.01256C19.3408 4.68437 19.7859 4.5 20.25 4.5Z" stroke="#2A2238" stroke-width="1.5"/>
</svg>
